X:4111
L:1/16
M:4/4
K:D
|:"D" A,6 D2"G" B,6 D2 |"A" C2>D2E2C2"D" D2>E2 FED2 |"D" A,6 D2"G" B,6 D2 |1 
"A" C2>D2E2C2"D" DFEC D4 :|2"A" C2>D2E2C2"D" D2>D2D2 (3ABc ||"D" d2fd adfd"A" c2ef gecA | 
"D" d2fd adfd"Em" egec"A" A2AB |"D" AFDF Addd"G" BGBG BdcB |1"A" Acef gfec dfec"D" d2 (3ABc :|2 
"A" Acef gfec df[df][df]"D" [df]4 ||

